svg/solid/bxs-calendar-exclamation.svg

<svg xmlns="http://www.w3.org/2000/svg" width="24" height="24"><path d="M19 4h-2V2h-2v2H9V2H7v2H5c-1.103 0-2 .897-2 2v14c0 1.103.897 2 2 2h14c1.103 0 2-.897 2-2V6c0-1.103-.897-2-2-2zm-6 16h-2v-2h2v2zm0-4h-2v-5h2v5zm6-7H5V7h14v2z"/></svg>

<svg xmlns="http://www.w3.org/2000/svg" width="24" height="24" viewBox="0 0 24 24"><path d="M19,4h-2V2h-2v2H9V2H7v2H5C3.897,4,3,4.897,3,6v14c0,1.103,0.897,2,2,2h14c1.103,0,2-0.897,2-2V6C21,4.897,20.103,4,19,4z M13,20h-2v-2h2V20z M13,16h-2v-5h2V16z M19,9H5V7h14V9z"/></svg>
